X:450
T: La' mein Jogli, la dir sagen (5-46), S. 77
N: P0720
O: Lothringen
S: MERKELBACH-PINCK, Angelika: Verklingende Weisen, Bd 5, Kassel 1962]
N: 2. Strophe beginnt in der ersten, 2.letzten und
N: letzten Strophe mit Auftakt
R: geistliches, religises Lied]
M: 2/4
L: 1/8
K: C
 | CEGG | AAGG | AAGG |
FFEE | DDC
E | EDEE | FED
C | EDEE | FED2 |
CEGG | AAG2 | AAG2 |
FFEG | DDC2

@@@ Tune index: 8000
